!! J.S. Bach "Partita" BWV 1013 for flauto traverso
!! Dolmetsch suggests a tempo of quarter note equals 100 beats per minute.
!! Second movement: Corrente
**kern
*M3/4
8ee
=1
{16a
16b
16cc
16dd
8ee
16ff#
16gg#}
8aa
8bb
=2
8ccc
8a
4g
4bb
=3
8f
16aa
16gg#
8aa
8e
8d
8bb
=4
4.gg#T
16bb
16aa
16gg#
16ff#
16ee
16dd
=5
16cc
16dd
16ee
16cc
8a
16ccc
16bb
16aa
16ggn
16ffn
16ee
=6
16dd
16ee
16ff
16dd
8b
16ddd
16ccc
16bb
16aa
16gg
16ff
=7
16ee
16ff
16gg
16ee
16cc
16dd
16ee
16cc
16ff
16gg
16aa
16ff
=8
16dd
16ee
16ff
16dd
16b
16cc
16dd
16b
16ee
16ff
16gg
16ee
=9
16cc
16dd
16ee
16cc
16a
16b
16cc
16a
16dd
16ee
16ff
16dd
=10
4.bT
16g
16a
16b
16cc
16dd
16ee
=11
8ff
16g#
16a
8b
8dd
16ee
16dd
16cc
16b
=12
16cc
16b
16a
16ee
16cc
16b
16a
16ee
16aa
16gg#
16aa
16cc
=13
16d#
16cc
16aa
16aa
16d#
16cc
16aa
16aa
16b
16aa
16ggn
16ff#
=14
16gg
16ff#
16ee
16bb
16gg
16ff#
16ee
16bb
16ccc
16bb
16ccc
16ee
=15
16f#
16dd
16ccc
16ccc
16g#
16dd
16bb
16dd
16g#
16dd
16cc
16b
=16
{16a
16b
16cc
16ee}
{16a
16b
16cc
16ee}
16aa
16bb
16ccc
16aa
=17
4.ddd#
16a
16cc
16b
16a
16g
16f#
=18
16g
16b
16ee
16bb
16aa
16gg
16ff#
16ee
16gg
16ff#
16ee
16dd#
=19
8ee
16a#
16b
8cc#
8ee
16ff#
16ee
16dd#
16cc#
=20
8dd#
16ff#
16gg
8aa
8ff#
16ee
16dd#
16cc#
16b
=21
16a
16f#
16g
16b
16ee
16gg
16bb
16ee
8b
8dd#
=22
16ee
16b
16cc
16a
16g
16ee
16f#
16dd#
8e
8b
=23
16e
16f#
16g#
16a
16b
16cc
16dd
16ee
8ffn
16ee
16dd
=24
8cc
8a
4ccc
4gn
=25
8f#
16ccc
16bb
8ccc
8e
8d
8ccc
=26
16bb
16ccc
16ddd
16bb
[4gg
16gg]
16ff
16ee
16dd
=27
16cc
16b
16a
16cc
16ff
16gg
16aa
16ff
16dd
16ee
16ff
16dd
=28
16cc
16b
16a
16g
16ee
16ff
16gg
16ee
16cc
16dd
16ee
16cc
=29
16a
16g
16f
16a
16dd
16ee
16ff
16gg
16aa
16bb
16ccc
16aa
=30
16ff
16ee
16ff
16dd
16b
16a
16b
16g
16f
16e
16f
16d
=31
16e
16cc
16gg
16gg
16e
16cc
16gg
16cc
16aa
16cc
16bb-
16cc
=32
16f
16cc
16aa
16ff
16ee
16dd
16cc
16b-
16a
16g
16f
16e
=33
16f#
16dd
16aa
16aa
16f#
16dd
16aa
16dd
16bb
16dd
16ccc
16dd
=34
16g
16dd
16bb
16gg
16ff
16ee
16dd
16cc
16b
16a
16g
16f
=35
16e
16f
16g
16cc
16ee
16cc
16b
16cc
16g
16b
16cc
16ee
=36
16f
16g
16a
16cc
16ee
16cc
16b
16cc
16a
16b
16cc
16ee
=37
16g
16a
16b
16cc
16ee
16cc
16b
16cc
16b
16cc
16dd
16ee
=38
16a
16b
16cc
16ee
16ff
16aa
16ff
16ee
16dd
16ff
16dd
16cc
=39
16b
16cc
16dd
16ff
16gg
16ddd
16bb
16aa
16gg
16bb
16gg
16ff
=40
16ee
16gg
16ee
16dd
16cc
16ee
16cc
16b
16a
16cc
16a
16g
=41
16f
16ee
16aa
16dd
16ee
16b
16cc
16f#
16g
16cc
16g
16b
=42
16d#
16cc
[8aa
16aa]
16ccc
16bb
16aa
16gg
16ff#
16ee
16dd#
=43
16bb
16aa
16ccc
16bb
16aa
16gg
16ff#
16ee
8b
8dd#
=44
[4ee
16ee]
16ff#
16gg
16aa
16bb-
16aa
16bb-
16gg
=45
16cc#
16dd
16ee
16ffn
16gg
16ff
16gg
16ee
16a
16cc#
16ee
16gg
=46
8ff
16d
16e
16f
16a
16dd
16ee
16ff
16ee
16ff
16dd
=47
16g#
16a
16b
16cc
16dd
16cc
16dd
16b
16e
16g#
16b
16dd
=48
16cc
16b
16a
16b
16cc
16ee
16aa
16bb
16ccc
16bb
16ccc
16aa
=49
16dd#
16ee
16ff#
16gg
16aa
16gg
16aa
16ff#
16b
16dd#
16ff#
16aa
=50
16gg#
16aa
16bb
16gg#
16ee
16gg#
16dd
16gg#
16cc
16gg#
16b
16gg#
=51
16cc
16ee
16aa
16ee
16cc
16ee
16b
16ee
16cc
16ee
16a
16ee
=52
16g#
16ee
16bb
16ee
16g#
16ee
16f#
16ee
16g#
16ee
16e
16ee
=53
16a
16ee
16ccc
16ee
16ff
16dd
16aa
16dd
16ccc
16dd
16aa
16dd
=54
16bb
16dd
16g
16dd
16ee
16cc
16gg
16cc
16bb-
16cc
16gg
16cc
=55
16aa
16cc
16f
16a
16dd
16ee
16ff
16dd
16b
16cc
16dd
16b
=56
16gg#
16aa
16bb
16gg#
16ee
16ff#
16gg#
16bb
16ddd
16ccc
16ddd
16bb
=57
16ccc
16aa
16ffn
16ee
16dd
16ccc
16bb
16aa
16ee
16bb
16aa
16gg#
=58
16aa
16ff
16dd
16cc
16b
16aa
16ggn
16ff
16cc#
16gg
16ff
16ee
=59
16ff
16dd
16b-
16a
16g#
16ff
16ee
16dd
16a
16ee
16dd
16ccn
=60
16dd
16bn
16g#
16f#
16e
16f#
16g#
16a
16b
16cc
16dd
16b
=61
16cc
16a
16cc
16ee
16aa
16bb
16ccc
16aa
16ee
16aa
16bb
16gg#
=62
16aa
16ee
16ff
16dd
16cc
16aa
16b
16gg#
8a;
==
*-
